X:740
T:Little Brown Jug Jig
M:6/8
L:1/8
Z:abc by Bruce Osborne - bosborne@kos.net
K:D
d/e/|f3 d2B|AdB AFD|FBB Bcd|cBc AFD|!
f3 d2B|AdB AFD|FBB Bcd|cBc d2:|!
K:Dm
A|fed fed|cAB =c2d|=cAB =cAG|FDF Ade|!
fed fed|=cAB =c2d|=cAG FGA|FDD D2:|!
